Numix-GalliumOS/16/panel/copy-sync1.svg

<?xml version="1.0" encoding="UTF-8" standalone="no"?>
<!-- Generator: Adobe Illustrator 15.1.0, SVG Export Plug-In . SVG Version: 6.00 Build 0)  -->

<svg
   xmlns:dc="http://purl.org/dc/elements/1.1/"
   xmlns:cc="http://creativecommons.org/ns#"
   xmlns:rdf="http://www.w3.org/1999/02/22-rdf-syntax-ns#"
   xmlns:svg="http://www.w3.org/2000/svg"
   xmlns="http://www.w3.org/2000/svg"
   xmlns:sodipodi="http://sodipodi.sourceforge.net/DTD/sodipodi-0.dtd"
   xmlns:inkscape="http://www.inkscape.org/namespaces/inkscape"
   version="1.1"
   id="Layer_1"
   x="0px"
   y="0px"
   width="16"
   height="16"
   viewBox="0 0 16 16"
   enable-background="new 0 0 24 24"
   xml:space="preserve"
   inkscape:version="0.91 r"
   sodipodi:docname="copy-sync1.svg"><metadata
     id="metadata29"><rdf:RDF><cc:Work
         rdf:about=""><dc:format>image/svg+xml</dc:format><dc:type
           rdf:resource="http://purl.org/dc/dcmitype/StillImage" /><dc:title /></cc:Work></rdf:RDF></metadata><defs
     id="defs27" /><sodipodi:namedview
     pagecolor="#ffffff"
     bordercolor="#666666"
     borderopacity="1"
     objecttolerance="10"
     gridtolerance="10"
     guidetolerance="10"
     inkscape:pageopacity="0"
     inkscape:pageshadow="2"
     inkscape:window-width="1366"
     inkscape:window-height="747"
     id="namedview25"
     showgrid="false"
     inkscape:zoom="9.8333335"
     inkscape:cx="-7.8513197"
     inkscape:cy="2.2135913"
     inkscape:window-x="0"
     inkscape:window-y="21"
     inkscape:window-maximized="1"
     inkscape:current-layer="Layer_1" /><polygon
     points="16.033,8.347 22.172,0.866 22.76,1.286 18.162,10.28 "
     id="polygon17"
     style="opacity:0.4;fill:#ececec;fill-opacity:1"
     transform="matrix(0.64210882,0,0,0.64213866,0.29469305,0.53483176)" /><path
     style="fill:#ececec;fill-opacity:1"
     d="m 3.6818172,7.1360172 -2.5909091,0.8636769 0,-0.8636769 L 3.6818172,4.8878898 4.5448113,5.4080221 5.291905,7.2458229 4.1136353,8.8632097 Z"
     id="polygon19"
     inkscape:connector-curvature="0"
     sodipodi:nodetypes="cccccccc" /><path
     style="opacity:0.4;fill:#ececec;fill-opacity:1"
     d="m 3.6818172,4.8877989 -2.5909091,2.2485795 0,0.8636364 2.5909091,-0.8636364 0.8636362,3.4545456 0.8636365,3.454545 2.1235801,-1.285511 0,-0.0014 7.115056,2.150568 0.237216,0 0.02415,-0.195988 L 12.318181,8.8636512 11.454544,8.0000148 7.0340899,11.532685 6.0383512,9.0838213 4.5454534,5.4076853 3.6818172,4.8877989 Z"
     id="polyline21"
     inkscape:connector-curvature="0" /><path
     d="M 7.639776,9.7264046 6.2907052,7.1360172 7.9999989,6.2723408 c 0.8629941,0 2.5896251,0.8636764 2.5896251,0.8636764 L 7.639776,9.7264046 Z"
     id="path23"
     inkscape:connector-curvature="0"
     style="opacity:0.4;fill:#ececec;fill-opacity:1" /></svg>

<!-- Generator: Adobe Illustrator 15.1.0, SVG Export Plug-In . SVG Version: 6.00 Build 0)  -->
<svg xmlns="http://www.w3.org/2000/svg" viewBox="0 0 16 16" style="enable-background:new 0 0 24 24">
 <polygon points="16.033,8.347 22.172,0.866 22.76,1.286 18.162,10.28 " transform="matrix(0.64210882,0,0,0.64213866,0.29469305,0.53483176)" style="fill:#ececec;opacity:0.4;fill-opacity:1"/>
 <path d="m 3.682 7.136 -2.591 0.864 0 -0.864 l 2.591 -2.248 0.863 0.52 0.747 1.838 -1.178 1.617" style="fill:#ececec;fill-opacity:1"/>
 <path d="m 3.682 4.888 -2.591 2.249 0 0.864 2.591 -0.864 0.864 3.455 0.864 3.455 2.124 -1.286 0 -0.001 7.115 2.151 0.237 0 0.024 -0.196 l -2.591 -5.849 -0.864 -0.864 -4.42 3.533 -0.996 -2.449 -1.493 -3.676 -0.864 -0.52" style="fill:#ececec;opacity:0.4;fill-opacity:1"/>
 <path d="m 7.64 9.726 -1.349 -2.59 1.709 -0.864 c 0.863 0 2.59 0.864 2.59 0.864 l -2.95 2.59" style="fill:#ececec;opacity:0.4;fill-opacity:1"/>
</svg>
